svg/fluentui-system-icons/ic_fluent_print_16_regular.svg

<svg width="16" height="16" viewBox="0 0 16 16" fill="none" xmlns="http://www.w3.org/2000/svg">
<path d="M4 3.5C4 2.67157 4.67157 2 5.5 2H10.5C11.3284 2 12 2.67157 12 3.5V4H13C14.1046 4 15 4.89543 15 6V10.5C15 11.3284 14.3284 12 13.5 12H12V12.5C12 13.3284 11.3284 14 10.5 14H5.5C4.67157 14 4 13.3284 4 12.5V12H2.5C1.67157 12 1 11.3284 1 10.5V6C1 4.89543 1.89543 4 3 4H4V3.5ZM4 11V10.5C4 9.67157 4.67157 9 5.5 9H10.5C11.3284 9 12 9.67157 12 10.5V11H13.5C13.7761 11 14 10.7761 14 10.5V6C14 5.44772 13.5523 5 13 5H3C2.44772 5 2 5.44772 2 6V10.5C2 10.7761 2.22386 11 2.5 11H4ZM5 4H11V3.5C11 3.22386 10.7761 3 10.5 3H5.5C5.22386 3 5 3.22386 5 3.5V4ZM5 10.5V12.5C5 12.7761 5.22386 13 5.5 13H10.5C10.7761 13 11 12.7761 11 12.5V10.5C11 10.2239 10.7761 10 10.5 10H5.5C5.22386 10 5 10.2239 5 10.5Z" fill="#212121"/>
</svg>

<svg xmlns="http://www.w3.org/2000/svg" width="16" height="16"><path d="M4 3.5A1.5 1.5 0 0 1 5.5 2h5A1.5 1.5 0 0 1 12 3.5V4h1a2 2 0 0 1 2 2v4.5a1.5 1.5 0 0 1-1.5 1.5H12v.5a1.5 1.5 0 0 1-1.5 1.5h-5A1.5 1.5 0 0 1 4 12.5V12H2.5A1.5 1.5 0 0 1 1 10.5V6a2 2 0 0 1 2-2h1v-.5ZM4 11v-.5A1.5 1.5 0 0 1 5.5 9h5a1.5 1.5 0 0 1 1.5 1.5v.5h1.5a.5.5 0 0 0 .5-.5V6a1 1 0 0 0-1-1H3a1 1 0 0 0-1 1v4.5a.5.5 0 0 0 .5.5H4Zm1-7h6v-.5a.5.5 0 0 0-.5-.5h-5a.5.5 0 0 0-.5.5V4Zm0 6.5v2a.5.5 0 0 0 .5.5h5a.5.5 0 0 0 .5-.5v-2a.5.5 0 0 0-.5-.5h-5a.5.5 0 0 0-.5.5Z"/></svg>
